packages/core/src/svgs/dacxi.svg

<svg width="24" height="24" viewBox="0 0 24 24" fill="none" xmlns="http://www.w3.org/2000/svg">
<g clip-path="url(#clip0_31_8988)">
<path d="M0 0H24V24H0V0Z" fill="url(#paint0_linear_31_8988)"/>
<path d="M12.8573 5.34C12.8573 5.02286 13.0287 4.73143 13.3073 4.56857L14.2844 3.99429C14.4364 3.90499 14.6095 3.85791 14.7859 3.85791C14.9622 3.85791 15.1353 3.90499 15.2873 3.99429L16.2644 4.56857C16.4001 4.64688 16.5129 4.75924 16.5919 4.89453C16.6708 5.02983 16.713 5.18338 16.7144 5.34V15.5914C16.7144 16.2429 16.363 16.8386 15.793 17.1643L15.4673 17.3486L11.7859 15.2271L12.703 14.6871C12.7504 14.6588 12.7895 14.6186 12.8166 14.5705C12.8436 14.5224 12.8577 14.4681 12.8573 14.4129V5.33572V5.34ZM12.0001 8.19429C11.5419 8.08578 11.0596 8.15468 10.6501 8.38715L7.35014 10.2643C7.07104 10.4214 6.83867 10.6498 6.67677 10.9261C6.51488 11.2025 6.42928 11.5169 6.42871 11.8371V12.1329L9.85728 14.1129V13.0157C9.85728 12.9 9.91728 12.8014 10.0116 12.7414L11.203 12.0429C11.2973 11.9871 11.4173 11.9871 11.5116 12.0429L12.0001 12.33V8.19429ZM6.42871 13.1229V15.5914C6.42871 16.2429 6.78014 16.8386 7.35014 17.1643L10.6501 19.0414C11.2201 19.3671 11.923 19.3671 12.493 19.0414L14.6016 17.8414L6.42871 13.1229Z" fill="white"/>
</g>
<defs>
<linearGradient id="paint0_linear_31_8988" x1="12" y1="0" x2="12" y2="24" gradientUnits="userSpaceOnUse">
<stop stop-color="#0584BE"/>
<stop offset="0.78" stop-color="#244E78"/>
</linearGradient>
<clipPath id="clip0_31_8988">
<rect width="24" height="24" fill="white"/>
</clipPath>
</defs>
</svg>

<svg xmlns="http://www.w3.org/2000/svg" width="24" height="24" fill="none" viewBox="0 0 24 24"><g clip-path="url(#a)"><path fill="url(#b)" d="M0 0h24v24H0z"/><path fill="#fff" d="M12.857 5.34c0-.317.172-.609.45-.771l.977-.575a.99.99 0 0 1 1.003 0l.977.575a.9.9 0 0 1 .45.771v10.251a1.81 1.81 0 0 1-.921 1.573l-.326.185-3.681-2.122.917-.54a.32.32 0 0 0 .154-.274V5.336zM12 8.194a1.86 1.86 0 0 0-1.35.193l-3.3 1.877a1.81 1.81 0 0 0-.921 1.573v.296l3.428 1.98v-1.097c0-.116.06-.215.155-.275l1.191-.698a.3.3 0 0 1 .309 0l.488.287zM6.43 13.123v2.468c0 .652.351 1.248.921 1.573l3.3 1.877a1.86 1.86 0 0 0 1.843 0l2.109-1.2z"/></g><defs><linearGradient id="b" x1="12" x2="12" y1="0" y2="24" gradientUnits="userSpaceOnUse"><stop stop-color="#0584BE"/><stop offset=".78" stop-color="#244E78"/></linearGradient><clipPath id="a"><path fill="#fff" d="M0 0h24v24H0z"/></clipPath></defs></svg>
